!!!SOCIAL_FUNCTION:	war songs
!!!PDT:	1909
!!!OTL: No_155_Inside_the_Cave.krn
!!!REG: Great_Lakes
!!!LANG: Non-Tone
!!!LING_GROUP: Algonquin
**kern
*staff1
=1-
*clefG2
*k[]
*M2/4
8g/L
8g/J
8.g/L
16g/Jk
=2
8g/L
8g/J
4e/
=3
8g/L
8g/J
8.g/L
16g/Jk
=4
8a/L
8g/J
8.e/L
16e/Jk
=5
8e/L
8c/J
4c/
=6
8e/L
8e/J
4c/
=7||
*M3/4
2c/
4c/
=8
=
*M2/4
8c/L
8c/J
8.c/L
16d/Jk
=9
8e/L
8c/J
4A/
=10
8c/L
8c/J
8.c/L
16d/Jk
=11
8e/L
8c/J
8.A/L
16G/Jk
*clefF4
=12
4.G\
8G\
=13
8A\L
8G\J
4E\
=14
8G\L
8G\J
8.G\L
16G\Jk
=15
8A\L
8G\J
8.E\L
16D\Jk
=16
4C/
8E^\L
8D\J
=17
2C/
==:|!
*-
